X:0817
T:Margate Hunt.
M:6/8
L:1/8
Q:3/8=116
I: :: :|
Z:Jack Campin * www.campin.me.uk * 2009
K:D
dBd fed|cBA g3 |fed cde|dAG FED|dBd fed|cBA g3 |fed cde|d3- d3:|
FDF GFE|Bcd BAG|FDF GFE|GEE E3 |FDF GFE|Bcd efg|fed cde|d3- d3:|
<end>
<start>
